papirus/16x16/apps/icq.svg

<svg height="16" viewBox="0 0 16 16" width="16" xmlns="http://www.w3.org/2000/svg"><path d="m5.6591323 15.991829c-.3320184-.0371-.5743686-.10504-.8376302-.234815-.5677397-.279867-.9523098-.768942-1.0914792-1.388081-.046892-.208616-.046867-.687626.0000536-.903018.1244744-.571478.3866282-.996232 1.2795549-2.073196.5415625-.653188 1.5200882-1.7710808 1.5502764-1.7710808.00923 0 .081246.042314.1600327.094027.2777853.1823325.6072093.3052938.9682573.3614118.036462.0057.070311.01658.075232.02426.00493.0077.037237.365355.071821.79485.1249255 1.551523.1731939 2.480028.1491046 2.868234-.022683.365506-.1289322.758088-.2894591 1.069502-.2305551.447267-.6151791.809636-1.0590013.997726-.3034733.12861-.6908406.192137-.9767626.160187zm4.4608617-.8568c-.7487246-.131966-1.3040163-.740421-1.5607856-1.710215-.1192849-.450527-.4949558-2.64469-.546274-3.190598l-.012049-.128186.078165-.0086c.4362317-.04805.6081936-.09031.8854521-.2176241.1005216-.04616.2415944-.1231263.3134973-.1710411.071902-.047914.1350769-.087117.1403877-.087117.010581 0 .7288815.7556052 1.0956065 1.1525092.569036.615864 1.026864 1.144548 1.184087 1.367341.455556.645544.61708 1.375829.429295 1.940928-.08726.262599-.242197.479346-.467889.654556-.419589.325738-1.039864.486118-1.539492.398057zm3.586532-2.771782c-.574822-.054989-1.133774-.287203-1.623753-.674583-.282044-.222984-1.107013-.934265-1.498547-1.292035-.329727-.301292-.9727708-.9199702-.9727708-.9359119 0-.00826.038997-.058633.086664-.1119486.245096-.2741525.3980718-.5668799.5018108-.9602428l.01901-.072089.896229.00766c2.554676.021829 2.783035.033869 3.28725.1733063.614922.1700554 1.108636.5264965 1.374102.9920456.30463.5342324.29752 1.1934174-.01946 1.8039964-.101792.196071-.174163.294607-.336878.458664-.29556.297996-.650508.486025-1.072481.568136-.175587.03417-.503585.05617-.64118.04301zm-3.457693-4.4917435c-.0057-.1300777-.02307-.294556-.0387-.3655074-.061729-.2801903-.184718-.5671285-.3342956-.7799171-.0388553-.0552743-.0664603-.1110217-.0613415-.1238783.0198031-.0497428 1.4050801-1.1429919 1.9827821-1.5647907.396236-.2893046.626221-.433144.910015-.5691497.874778-.4192291 1.684282-.3945867 2.286125.069593.276528.2132749.509764.5702411.607586.9299023.0645.2371359.06875.6107982.0096.8394965-.182976.7069308-.745439 1.1927793-1.60471 1.3861267-.295815.066562-1.377206.2074212-2.253182.2934932-.411988.040474-1.373554.121136-1.444151.121136h-.04945l-.01028-.2365045zm-8.194077.0983611c-.6452485-.0633011-1.17553578-.2809891-1.53359096-.6295525-.5860088-.5704742-.68666857-1.4566216-.25704483-2.2628656.29129745-.5466575.75640639-.893409 1.37131479-1.0223525.2264716-.04749.7112136-.043694.9572608.007496.357552.074389.7385508.2284955 1.0553217.4268566.38799.2429583 1.6407308 1.186849 2.3020268 1.7344873l.3265989.2704657-.0310462.0456914c-.0170773.025126-.0642016.089102-.1047189.142164-.1723285.2256754-.3234627.5886234-.3776749.9069845l-.029336.1722726-.081974.010217c-.3095498.038583-1.6327498.1470195-2.2142673.1814658-.4317184.025571-1.1979731.034811-1.3828669.016674zm7.4934075-1.6185044c-.2751323-.2770046-.7802689-.5122908-1.2386469-.5769468-.1033938-.0145829-.1907162-.0289658-.1940493-.03196-.0033229-.0030286-.0211445-.2092183-.0395815-.4582772-.1078665-1.4572625-.1409556-2.3255031-.1098258-2.8817673.0306708-.5480849.0817791-.7955249.2274578-1.1012501.1488099-.31229515.4789188-.6853749.7758432-.87683643.6446296-.41566654 1.437089-.53275584 2.172984-.32106797 1.152175.33143449 1.837133 1.5474174 1.529709 2.7156399-.145839.5541935-.520409 1.1012921-1.40137 2.0468488-.331238.3555263-1.5827408 1.5566314-1.6219463 1.5566314-.016523 0-.061782-.031954-.100576-.071014zm-3.9236945-.7933028c-1.4404161-1.3867571-1.8630148-1.8959969-2.0712275-2.4958683-.0952854-.2745227-.1212143-.4555599-.1099802-.767897.0112548-.312943.0454433-.4586291.1648909-.7026602.2271209-.4640084.6123537-.77638733 1.1766508-.95412714.3972425-.12512171.7798696-.14026891 1.1598242-.04591429.2067335.05133829.5085753.20065365.6868788.33978564.3244942.25320639.5874425.65582879.6943909 1.06324079.07635.2908488.1879827 1.0014233.3308129 2.1057114.134832 1.042448.2024486 1.6247456.1901864 1.6378371-.00639.00682-.07167.020486-.1450671.030366-.4146455.055806-.794856.2120868-1.1158264.4586559-.065859.050594-.1312702.091988-.1453571.091988-.014086 0-.3813655-.3425017-.8161766-.7611153z" fill="#37b648"/><path d="m2.7690506 12.043967c-.7018158-.0771-1.3796163-.684695-1.5814929-1.417684-.0537631-.195207-.0656815-.523504-.0259028-.7135014.0658394-.3144742.222255-.5813434.481173-.8209559.4116542-.3809611.9198022-.5788137 2.0356819-.7926148.6719824-.1287514 1.9996374-.3189617 2.0361665-.2917177.010923.00814.025348.07323.032062.1446314.036874.3922594.2293016.833408.4975841 1.1407394.060886.06975.118259.1367634.1274917.1489194.011766.015486-.00425.046948-.053532.1051697-.1048906.1239148-1.3033066 1.2792219-1.5606445 1.5045059-.2471476.216363-.682653.579843-.7936329.662378-.129694.09645-.3544657.210502-.5182864.262977-.1384463.04435-.4215159.09167-.507712.08488-.01472-.0011-.090751-.0091-.1689579-.01772z" fill="#f15b43"/><circle cx="8" cy="8" fill="#ffca2b" r="3"/></svg>

<?xml version="1.0" encoding="UTF-8" standalone="no"?>
<!-- Created with Inkscape (http://www.inkscape.org/) -->

<svg
   xmlns:dc="http://purl.org/dc/elements/1.1/"
   xmlns:cc="http://creativecommons.org/ns#"
   xmlns:rdf="http://www.w3.org/1999/02/22-rdf-syntax-ns#"
   xmlns:svg="http://www.w3.org/2000/svg"
   xmlns="http://www.w3.org/2000/svg"
   xmlns:sodipodi="http://sodipodi.sourceforge.net/DTD/sodipodi-0.dtd"
   xmlns:inkscape="http://www.inkscape.org/namespaces/inkscape"
   id="svg2"
   version="1.1"
   inkscape:version="0.91 r13725"
   width="16"
   height="16"
   viewBox="0 0 16 16"
   sodipodi:docname="icq.svg">
  <metadata
     id="metadata8">
    <rdf:RDF>
      <cc:Work
         rdf:about="">
        <dc:format>image/svg+xml</dc:format>
        <dc:type
           rdf:resource="http://purl.org/dc/dcmitype/StillImage" />
        <dc:title />
      </cc:Work>
    </rdf:RDF>
  </metadata>
  <defs
     id="defs6" />
  <sodipodi:namedview
     pagecolor="#ffffff"
     bordercolor="#666666"
     borderopacity="1"
     objecttolerance="10"
     gridtolerance="10"
     guidetolerance="10"
     inkscape:pageopacity="0"
     inkscape:pageshadow="2"
     inkscape:window-width="1600"
     inkscape:window-height="847"
     id="namedview4"
     showgrid="false"
     inkscape:zoom="7.03"
     inkscape:cx="9.9350109"
     inkscape:cy="8.442149"
     inkscape:window-x="0"
     inkscape:window-y="0"
     inkscape:window-maximized="1"
     inkscape:current-layer="svg2" />
  <g
     id="g4138">
    <path
       style="fill:#37b648"
       d="M 5.6591323,15.991829 C 5.3271139,15.954729 5.0847637,15.886789 4.8215021,15.757014 4.2537624,15.477147 3.8691923,14.988072 3.7300229,14.368933 c -0.046892,-0.208616 -0.046867,-0.687626 5.36e-5,-0.903018 0.1244744,-0.571478 0.3866282,-0.996232 1.2795549,-2.073196 0.5415625,-0.653188 1.5200882,-1.7710808 1.5502764,-1.7710808 0.00923,0 0.081246,0.042314 0.1600327,0.094027 0.2777853,0.1823325 0.6072093,0.3052938 0.9682573,0.3614118 0.036462,0.0057 0.070311,0.01658 0.075232,0.02426 0.00493,0.0077 0.037237,0.365355 0.071821,0.79485 0.1249255,1.551523 0.1731939,2.480028 0.1491046,2.868234 -0.022683,0.365506 -0.1289322,0.758088 -0.2894591,1.069502 -0.2305551,0.447267 -0.6151791,0.809636 -1.0590013,0.997726 -0.3034733,0.12861 -0.6908406,0.192137 -0.9767626,0.160187 z m 4.4608617,-0.8568 C 9.3712694,15.003063 8.8159777,14.394608 8.5592084,13.424814 8.4399235,12.974287 8.0642526,10.780124 8.0129344,10.234216 l -0.012049,-0.128186 0.078165,-0.0086 C 8.5152821,10.04938 8.687244,10.00712 8.9645025,9.8798059 9.0650241,9.8336459 9.2060969,9.7566796 9.2779998,9.7087648 c 0.071902,-0.047914 0.1350769,-0.087117 0.1403877,-0.087117 0.010581,0 0.7288815,0.7556052 1.0956065,1.1525092 0.569036,0.615864 1.026864,1.144548 1.184087,1.367341 0.455556,0.645544 0.61708,1.375829 0.429295,1.940928 -0.08726,0.262599 -0.242197,0.479346 -0.467889,0.654556 -0.419589,0.325738 -1.039864,0.486118 -1.539492,0.398057 z m 3.586532,-2.771782 C 13.131704,12.308258 12.572752,12.076044 12.082773,11.688664 11.800729,11.46568 10.97576,10.754399 10.584226,10.396629 10.254499,10.095337 9.6114552,9.4766588 9.6114552,9.4607171 c 0,-0.00826 0.038997,-0.058633 0.086664,-0.1119486 C 9.9432152,9.074616 10.096191,8.7818886 10.19993,8.3885257 l 0.01901,-0.072089 0.896229,0.00766 c 2.554676,0.021829 2.783035,0.033869 3.28725,0.1733063 0.614922,0.1700554 1.108636,0.5264965 1.374102,0.9920456 0.30463,0.5342324 0.29752,1.1934174 -0.01946,1.8039964 -0.101792,0.196071 -0.174163,0.294607 -0.336878,0.458664 -0.29556,0.297996 -0.650508,0.486025 -1.072481,0.568136 -0.175587,0.03417 -0.503585,0.05617 -0.64118,0.04301 z M 10.248833,7.8715035 c -0.0057,-0.1300777 -0.02307,-0.294556 -0.0387,-0.3655074 C 10.148404,7.2258058 10.025415,6.9388676 9.8758374,6.726079 9.8369821,6.6708047 9.8093771,6.6150573 9.8144959,6.6022007 9.834299,6.5524579 11.219576,5.4592088 11.797278,5.03741 c 0.396236,-0.2893046 0.626221,-0.433144 0.910015,-0.5691497 0.874778,-0.4192291 1.684282,-0.3945867 2.286125,0.069593 0.276528,0.2132749 0.509764,0.5702411 0.607586,0.9299023 0.0645,0.2371359 0.06875,0.6107982 0.0096,0.8394965 -0.182976,0.7069308 -0.745439,1.1927793 -1.60471,1.3861267 C 13.710079,7.7599408 12.628688,7.9008 11.752712,7.986872 11.340724,8.027346 10.379158,8.108008 10.308561,8.108008 l -0.04945,0 -0.01028,-0.2365045 z M 2.054756,7.9698646 C 1.4095075,7.9065635 0.87922022,7.6888755 0.52116504,7.3403121 -0.06484376,6.7698379 -0.16550353,5.8836905 0.26412021,5.0774465 0.55541766,4.530789 1.0205266,4.1840375 1.635435,4.055094 1.8619066,4.007604 2.3466486,4.0114 2.5926958,4.06259 c 0.357552,0.074389 0.7385508,0.2284955 1.0553217,0.4268566 0.38799,0.2429583 1.6407308,1.186849 2.3020268,1.7344873 L 6.2766432,6.4943996 6.245597,6.540091 C 6.2285197,6.565217 6.1813954,6.629193 6.1408781,6.682255 5.9685496,6.9079304 5.8174154,7.2708784 5.7632032,7.5892395 l -0.029336,0.1722726 -0.081974,0.010217 C 5.3423434,7.8103121 4.0191434,7.9187486 3.4376259,7.9531949 3.0059075,7.9787659 2.2396528,7.9880059 2.054759,7.9698689 Z M 9.5481635,6.3513602 C 9.2730312,6.0743556 8.7678946,5.8390694 8.3095166,5.7744134 8.2061228,5.7598305 8.1188004,5.7454476 8.1154673,5.7424534 8.1121444,5.7394248 8.0943228,5.5332351 8.0758858,5.2841762 7.9680193,3.8269137 7.9349302,2.9586731 7.96606,2.4024089 7.9967308,1.854324 8.0478391,1.606884 8.1935178,1.3011588 8.3423277,0.98886365 8.6724366,0.6157839 8.969361,0.42432237 9.6139906,0.00865583 10.40645,-0.10843347 11.142345,0.1032544 c 1.152175,0.33143449 1.837133,1.5474174 1.529709,2.7156399 -0.145839,0.5541935 -0.520409,1.1012921 -1.40137,2.0468488 -0.331238,0.3555263 -1.5827408,1.5566314 -1.6219463,1.5566314 -0.016523,0 -0.061782,-0.031954 -0.100576,-0.071014 z M 5.624469,5.5580574 C 4.1840529,4.1713003 3.7614542,3.6620605 3.5532415,3.0621891 3.4579561,2.7876664 3.4320272,2.6066292 3.4432613,2.2942921 3.4545161,1.9813491 3.4887046,1.835663 3.6081522,1.5916319 3.8352731,1.1276235 4.2205059,0.81524457 4.784803,0.63750476 5.1820455,0.51238305 5.5646726,0.49723585 5.9446272,0.59159047 6.1513607,0.64292876 6.4532025,0.79224412 6.631506,0.93137611 6.9560002,1.1845825 7.2189485,1.5872049 7.3258969,1.9946169 c 0.07635,0.2908488 0.1879827,1.0014233 0.3308129,2.1057114 0.134832,1.042448 0.2024486,1.6247456 0.1901864,1.6378371 -0.00639,0.00682 -0.07167,0.020486 -0.1450671,0.030366 -0.4146455,0.055806 -0.794856,0.2120868 -1.1158264,0.4586559 -0.065859,0.050594 -0.1312702,0.091988 -0.1453571,0.091988 -0.014086,0 -0.3813655,-0.3425017 -0.8161766,-0.7611153 z"
       id="path4140"
       inkscape:connector-curvature="0" />
    <path
       sodipodi:nodetypes="cssssccsssssscc"
       style="fill:#f15b43;fill-opacity:1"
       d="M 2.7690506,12.043967 C 2.0672348,11.966867 1.3894343,11.359272 1.1875577,10.626283 1.1337946,10.431076 1.1218762,10.102779 1.1616549,9.9127816 1.2274943,9.5983074 1.3839099,9.3314382 1.6428279,9.0918257 2.0544821,8.7108646 2.5626301,8.513012 3.6785098,8.2992109 4.3504922,8.1704595 5.6781472,7.9802492 5.7146763,8.0074932 c 0.010923,0.00814 0.025348,0.07323 0.032062,0.1446314 0.036874,0.3922594 0.2293016,0.833408 0.4975841,1.1407394 0.060886,0.06975 0.118259,0.1367634 0.1274917,0.1489194 0.011766,0.015486 -0.00425,0.046948 -0.053532,0.1051697 -0.1048906,0.1239148 -1.3033066,1.2792219 -1.5606445,1.5045059 -0.2471476,0.216363 -0.682653,0.579843 -0.7936329,0.662378 -0.129694,0.09645 -0.3544657,0.210502 -0.5182864,0.262977 -0.1384463,0.04435 -0.4215159,0.09167 -0.507712,0.08488 -0.01472,-0.0011 -0.090751,-0.0091 -0.1689579,-0.01772 z"
       id="path4142"
       inkscape:connector-curvature="0" />
  </g>
  <circle
     style="fill:#ffca2b;fill-opacity:1;stroke:none"
     id="path4149"
     cx="8"
     cy="8"
     r="3" />
</svg>
